X:1
T:All the Way My Savior Leads Me
T:Text: Fanny J. Crosby (1820-1915) Tune: Robert Lowry (1826-1899)
T:87 87D ALL THE WAY www.hymnary.org/text/all_the_way_my_savior_leads_me
T:All the Way My Savior Leads Me
T:This hymn is in the public domain.  You may freely use this score for personal and congregational worship.  If you reproduce the score, please credit Hymnary.org as the source. 
T:This hymn is in the public domain.  You may freely use this score for personal and congregational worship.  If you reproduce the score, please credit Hymnary.org as the source. 
T:This hymn is in the public domain.  You may freely use this score for personal and congregational worship.  If you reproduce the score, please credit Hymnary.org as the source. 
Z:This hymn is in the public domain.  You may freely use this score for personal and congregational worship.  If you reproduce the score, please credit Hymnary.org as the source.
%%score ( 1 2 ) ( 3 4 )
L:1/8
M:3/4
K:G
V:1 treble nm="Piano" snm="Pno."
V:2 treble 
V:3 bass nm="Piano" snm="Pno."
V:4 bass 
V:1
 [DB]>[DB] | [DB]3 [DB] [CA][B,G] | [B,D]2 [B,G]2 [B,G][DB] | [DA]3 [DF] [DG][DA] | [DB]4 | %5
w: 3~All the|way my Sa- vior|leads me; O the|full- ness of his|love!|
w: 1~All the|way my Sa- vior|leads me; what have|I to ask be-|side?|
w: 2~All the|way my Sa- vior|leads me; cheers each|win- ding path I|tread,|
 [DB]>[DB] | [Ec]3 [DB] [CA][B,G] | [DB]2 [DA]2 [DA][DA] | [^CA]3 [CE] [DF][EG] | [DF]4 | ED | %11
w: Per- fect|rest to me is|pro- mised in my|Fa- ther’s house a-|bove;|when my|
w: Can I|doubt his ten- der|mer- cy, who through|life has been my|guide?|Heaven- ly|
w: gives me|grace for ev- ery|tri- al, feeds me|with the li- ving|bread;|though my|
 [B,G]3 [CA] [B,G][CE] | [B,D]2 [B,G]2 [DG][DA] | [DB]3 [B,G] [Ec][DB] | [DA]4 | [DB][Dc] | %16
w: spi- rit, clothed im-|mor- tal, wings its|flight to realms of|day,|this my|
w: peace, di- vin- est|com- fort, here by|faith in him to|dwell,|for I|
w: wea- ry steps may|fal- ter, and my|soul a- thirst may|be,|gu- shing|
 [Dd]3 [DB] [DA][DG] | [CA]2 [EG]2 [DF][CE] | [B,D][B,G] [DB]2 [DA]2 | [DB]4 | [DB][Dc] | %21
w: song through end- less|a- ges, Je- sus|led me all the|way;|this my|
w: know, what- e'er be-|fall me, Je- sus|do- eth all things|well;|for I|
w: from the rock be-|fore me, lo! a|spring of joy I|see;|gu- shing|
 [Dd]3 [GB] [FA][EG] | [EA]2 [EG]2 [DF][CE] | [B,D][DG] [DB]2 [DA]2 | [DG]4 |] %25
w: song through end- less|a- ges, Je- sus|led me all the|way.|
w: know, what- e'er be-|fall me, Je- sus|do- eth all things|well.|
w: from the rock be-|fore me, lo! a|spring of joy I|see.|
V:2
 x2 | x6 | x6 | x6 | x4 | x2 | x6 | x6 | x6 | x4 | =CC | x6 | x6 | x6 | x4 | x2 | x6 | x6 | x6 | %19
 x4 | x2 | x6 | x6 | x6 | x4 |] %25
V:3
 [G,,G,]>[G,,G,] | [G,,G,]3 [G,,G,] [G,,G,][G,,G,] | [G,,G,]2 [G,,D,]2 [G,,D,][G,,G,] | %3
 [D,F,]3 [C,A,] [B,,G,][A,,F,] | [G,,G,]4 | G,>G, | G,3 G, [D,F,][E,G,] | %7
 [D,G,]2 [D,F,]2 [D,F,][D,F,] | [A,,E,]3 [A,,A,] [A,,A,][A,,A,] | [D,A,]4 | [D,G,][D,F,] | %11
 [G,,G,]3 [G,,G,] [G,,G,][G,,G,] | [G,,G,]2 [G,,D,]2 [B,,G,][D,F,] | G,3 G, G,G, | [D,F,]4 | G,A, | %16
 [G,B,]3 [G,,G,] [A,,F,][B,,G,] | [C,E,]2 [C,G,]2 [C,G,][C,G,] | [D,G,][D,G,] [D,G,]2 [D,F,]2 | %19
 G,4 | G,A, | [G,B,]3 [G,D] [D,C][E,B,] | [C,C]2 [C,C]2 [C,G,][C,G,] | [D,G,][D,B,] [D,D]2 [D,C]2 | %24
 [G,,B,]4 |] %25
V:4
 x2 | x6 | x6 | x6 | x4 | G,>G, | G,3 G, x2 | x6 | x6 | x4 | x2 | x6 | x6 | G,3 G, G,G, | x4 | %15
 G,G, | x6 | x6 | x6 | G,4 | G,G, | x6 | x6 | x6 | x4 |] %25

